X:721
T:Quendale Bay 
C:Joe Buchanan's Scottish Tome - Page 493.0
I:493 0
C:Phil Cunningham
T:AKA Quendale Beach 
Z:Carl Allison
R:Reel
L:1/8
M:4/4
K:Bb
DC | B,4 F3 G/A/ | B4 b ab | g3 a/b/ f Bc/d/ | e G2 F2 D>C |
B,4 F3 G/A/ | B4 b2 ab | g2 de f2 d2 | B6 :|
Bc | d>c d<f F2 G/A/ | B3 D D2 EF | G3 F/E/ F2 D2 | C6 B/c/d/e/|
d3 E E2 GA | B4 b2 ab | g2 de f2 d2 | B6 Bc | 
d3 E E2 GA | B3 D D3 E/F/ | G3 F/E/ F2 D2 | C6 DC |  
B,4 F3 GA | B4 b2 ab | g2 de f2 d2 | (B4 b2) |] 

